X: 9212
T: Dan Breen's
R: reel
M: 4/4
K: Gmajor
~e2 dB ABAG|EA~A2 EA (3Bcd|dedB ABAG|EGGF GA (3Bcd
~e2 dB ABAG|EA~A2 EA (3Bcd|(3efe dB ABAG|EGGF G2 (3Bcd:|
~e3 g ed (3Bcd|ea~a2 ed (3Bcd|~e2 ge edBa|(3Bcd ef g2fg
~e3 g ed (3Bcd|ea~a2 ed (3Bcd|~e2 ge edBa|(3Bcd ef g2:|

